X:14
T:Woodstock Bower
T:John Malchair's Third Collection of Tunes
%%VWML:Malchair-3619-p14
F:https://www.vwml.org/record/Malchair/3619/p14
F:www.vwml.org/topics/historic-dance-and-tune-books/Malchair
Z:Steve Mansfield Jan 2020
M:3/2
L:1/4
K:Dm
Ad^c Ad2 | Adc B/A/GF | AA/B/ cB/A/ GF/E/ | DAG FED || c>de/d/ cf2 | ed/c/=B ecA | 
c>deAc2 | ed/c/=B ecA c>dc AB2 | AG/F/E AGF | AA/B/ cB/A/ GF/E/ | DAG FED |
c>de/d/ cf2 | ed/c/=B ecA | c>dc AGF | E3 DD2 |]
W:
T:King's Maggot
T:New York
T:John Malchair's Third Collection of Tunes
%%VWML:Malchair-3619-p14
F:https://www.vwml.org/record/Malchair/3619/p14
F:www.vwml.org/topics/historic-dance-and-tune-books/Malchair
Z:Steve Mansfield Jan 2020
M:3/2
L:1/4
K:Bb
FBEBD2 | Cc2 G(A/B/) (c/A/) | FBEBD2 | B,B2G (A/B/) (c/A/) || dB2FD2 | Cc2 G(A/B/) (c/A/) | dB2AD2 | 
B,B2G (A/B/) (c/A/) || Bff(e/d/) (e/d/)(c/B/) | (A/B/)(c/d/)c G(A/B/)(c/A/) | Bff(e/d/) (g/f/)(g/a/) | bB2 G (A/B/)(c/A/) |
(d/c/B/)A/ (B/A/)(G/F/) (G/F/)(E/D/) | (d/c/)(B/A/) (B/A/)(G/F/) (D/E/)(F/D/) | B,B2G (A/B/) (c/A/) |]

